X: 1
T: Dumgoyne
C: Alasdair Heron
R: strathspey
B: Twelve More Social Dances
Z: 2003 John Chambers <jc:trillian.mit.edu>
M: C
L: 1/8
K: Em
|: B,/ \
| "Em"E>G B>e g>e B<G | "D"D>F A>^c d>A F<D \
| "Em"E>G B>e g>e B>A |1 "Em"G>E "D"F<D "Em"B,<E E :|2 "Em"(3GFE "D"(3FED "Em"B,<E E> :|
f \
| "Em"g>e B<G E>G B>e | "D"f>d A<F D>F A>f \
| "Em"g>e B<G E>G B>c | "B7"(3BAG F>B "Em"G<E E> |
f \
| "Em"(3gfe B>G E>G B>e | "D"(3fed A>F D>F A<F \
| "Em"E>G B>e g>e B>A | "Em"(3GAB "B7"F>B "Em"G<E E> |]
